Origami/64x64/apps/scout-app.svg

<svg width="64" height="64" version="1.1" viewBox="0 0 64 64" xmlns="http://www.w3.org/2000/svg">
 <path d="m31.999998 10.000007c-1.482632 8e-3 -2.906548 0.157772-4.363122 0.437481-0.0188 0.0036-0.03734 0.0042-0.05614 0.0078-0.675482 0.12791-1.343556 0.277065-2.0011 0.441388-9.275666 2.31803-16.542482 8.244561-15.475449 17.47581 0.07836 0.659892 0.194626 1.33164 0.35691 2.019442 0.01216 0.05152 0.02775 0.09726 0.0401 0.14844 1.289856 5.299716 4.299858 8.754808 5.522076 12.15963 0.01534 0.0438 0.03702 0.08902 0.05213 0.13282 3.182926 9.219534 2.84383 13.956892 8.946805 16.003216 2.45478 0.8173 4.437756 1.206616 6.977788 1.171826 2.540032 0.03478 4.523006-0.354526 6.977788-1.171826 6.102978-2.046324 5.76388-6.783682 8.946806-16.003216 0.015-0.04332 0.02916-0.0934 0.04412-0.13672 0.0028 8.92e-4 0.0052 3e-3 8e-3 4e-3 1.222218-3.404822 4.23222-6.859914 5.522076-12.15963 0.0124-0.05118 0.02798-0.09692 0.0401-0.14844 0.16228-0.687802 0.278558-1.35955 0.356908-2.019442 1.142692-9.885733-7.272334-15.985007-17.47653-17.917286-1.476218-0.286833-2.917514-0.437222-4.419266-0.445293z" style="opacity:.2"/>
 <path d="m31.999998 8.9999875c-1.482632 0.00796-2.906548 0.157772-4.363122 0.4374812-0.0188 0.0036-0.03734 0.00416-0.05614 0.00782-0.675482 0.12791-1.343556 0.2770642-2.0011 0.4413872-9.275666 2.3180301-15.697808 8.2445611-14.630775 17.47581 0.07836 0.659892 0.194626 1.33164 0.356909 2.019442 0.01216 0.05152 0.02775 0.09726 0.0401 0.14844 1.058521 4.349214 3.275505 7.174578 4.712183 10.03091 0.313979 0.624238-0.253984 1.518066-0.03478 2.12872 0.01534 0.0438 0.03702 0.08902 0.05213 0.13282 3.182926 9.219534 2.843829 13.956892 8.946805 16.003216 2.45478 0.8173 4.437756 1.206616 6.977788 1.171826 2.540032 0.03478 4.523006-0.354526 6.977788-1.171826 6.102978-2.046324 5.76388-6.783682 8.946806-16.003216 0.015-0.04332 0.02916-0.0934 0.04412-0.13672 0.0028 8.92e-4 0.0052 3e-3 8e-3 4e-3 0.16712-0.46558-0.0078-1.682922 0.21729-2.154972 1.420538-2.980072 3.065074-5.429634 4.178554-10.004658 0.0124-0.05118 0.02798-0.09692 0.0401-0.14844 0.16228-0.687802 0.278558-1.35955 0.356908-2.019442 1.142692-9.885753-6.146102-15.985027-16.350298-17.917305-1.476218-0.2868334-2.917514-0.437222-4.419266-0.4452932z" style="fill:#d7cec7"/>
 <path d="M 30.531248,45 C 29.132802,45 28,46.014724 28,47.267578 28,48.53333 30.605504,51 32,51 33.394496,51 36,48.53333 36,47.267578 36,46.014724 34.867198,45 33.468752,45 L 32,45 30.531248,45 Z" style="fill:#3f3f3f"/>
 <path d="m28.089844 9.3710937c-0.15132 0.026334-0.3012 0.037232-0.453126 0.066406-0.0188 0.0036-0.03588 0.00416-0.05468 0.00782-0.675482 0.12791-1.346362 0.2770834-2.003908 0.4414064-9.275665 2.3180299-16.539688 8.2453129-15.472655 17.476564 0.07836 0.659892 0.193184 1.331728 0.355468 2.01953 0.01216 0.05152 0.02671 0.09726 0.03906 0.14844 1.189874 4.88891 3.827697 8.205248 5.191407 11.363282 7.659462-2.608946 14.30859-9.78826 14.30859-19.71876 0.014926-3.726293-0.35871-8.342683-1.910156-11.804688z" style="fill:#de8c4a"/>
 <circle cx="20" cy="32" r="4" style="opacity:.2"/>
 <circle cx="20" cy="31" r="4" style="fill:#3f3f3f"/>
 <circle cx="19.5" cy="30.5" r="1.5" style="fill:#ffffff"/>
 <path d="m34.99998 56.142856c0 1.577956-1.34314 2.857144-2.999989 2.857144s-2.999991-1.279188-2.999991-2.857144c0-0.340016 0.06237-0.666158 0.176799-0.96862 0.416608-1.101216 1.462078-0.487676 2.761914-0.487676 1.29846 0 2.465538-0.615202 2.883165 0.484188 0.115275 0.303442 0.178122 0.630786 0.178122 0.972108z" style="fill:#d86f6f"/>
 <path d="m 25,54 c 0,0 1.76916,0.98528 3.428572,1.42596 C 29.457694,55.699258 32,53.99739 32,53.99739 c 0,0 2.542306,1.701868 3.571428,1.42857 C 37.23084,54.98528 39,54 39,54" style="fill:none;stroke-linecap:round;stroke-linejoin:round;stroke-width:2;stroke:#79431b"/>
 <path d="m35.91014 9.3710937c0.15132 0.026334 0.3012 0.037232 0.453126 0.066406 0.0188 0.0036 0.03588 0.00416 0.05468 0.00782 0.675482 0.12791 1.346362 0.2770834 2.003908 0.4414064 9.275664 2.3180299 16.539688 8.2453129 15.472656 17.476564-0.07836 0.659892-0.19318 1.331728-0.35547 2.01953-0.0122 0.05152-0.02672 0.09726-0.03906 0.14844-1.189874 4.88891-3.827696 8.205248-5.191406 11.363282-7.65946-2.608946-14.308588-9.78826-14.308588-19.71876-0.015-3.726293 0.35871-8.342683 1.910156-11.804688z" style="fill:#de8c4a"/>
 <path d="m32 9c-1.482632 0.00796-2.906707 0.15779-4.363281 0.4375-0.0188 0.0036-0.035888 0.0041525-0.054688 0.0078125-0.675482 0.12791-1.34636 0.2770832-2.003906 0.4414063-1.159462 0.2897452-2.286766 0.6371362-3.371094 1.0390622-0.540984 0.20055-1.076096 0.416274-1.59375 0.644531-3.111097 1.372572-5.772583 3.242925-7.652343 5.597657v0.003906c-1.56589 1.96242-2.592278 4.258823-2.878907 6.882813v0.003906c-0.065381 0.600097-0.069224 1.227845-0.048828 1.865234 0.009872-0.291153 0.018116-0.583342 0.048828-0.865234v-0.003906c0.286629-2.623991 1.313017-4.920393 2.878907-6.882813v-0.003906c1.87976-2.354732 4.541246-4.225085 7.652343-5.597657 0.517654-0.228256 1.052766-0.443981 1.59375-0.644531 1.084328-0.401926 2.211632-0.749316 3.371094-1.039062 0.657546-0.164323 1.328424-0.313497 2.003906-0.441407 0.0188-0.003599 0.035888-0.004212 0.054688-0.007812 1.456574-0.27971 2.880649-0.4295 4.363281-0.4375 1.328448 0.00714 2.610302 0.14527 3.910156 0.371094 0.15132 0.02634 0.301193 0.037236 0.453125 0.066406 0.01832 0.0035 0.036288 0.004212 0.054688 0.007812 0.67703 0.128203 1.344896 0.276629 2.003906 0.441407 1.15825 0.289609 2.284118 0.637415 3.367187 1.039062h0.003907 0.003906c0.405636 0.150516 0.798668 0.318261 1.191406 0.484375 0.145832 0.061648 0.297466 0.115898 0.441407 0.179688 0.322993 0.14323 0.632434 0.299119 0.945312 0.453125 0.220018 0.108242 0.44155 0.214572 0.65625 0.328125 0.272172 0.144018 0.533723 0.296686 0.796875 0.449218 0.2208 0.127908 0.442142 0.256742 0.65625 0.390626 0.237736 0.148738 0.466234 0.304849 0.695313 0.460937 0.251823 0.171517 0.501369 0.343067 0.742187 0.523437 0.19354 0.144988 0.380304 0.294623 0.566406 0.445313 0.219544 0.177749 0.435795 0.357305 0.644531 0.542969 0.204346 0.181748 0.400217 0.369285 0.59375 0.558594 0.187124 0.183063 0.370284 0.368478 0.546876 0.558593 0.184958 0.199094 0.362206 0.402573 0.535156 0.609375 0.16427 0.196407 0.319638 0.398219 0.472656 0.601563 0.14846 0.197287 0.296098 0.393861 0.433594 0.597656 0.164166 0.243339 0.316892 0.4935 0.464844 0.746094 0.111809 0.190918 0.221984 0.381938 0.324218 0.578125 0.134402 0.257797 0.253778 0.522187 0.371094 0.789062 0.09431 0.214554 0.190348 0.428067 0.273438 0.648438 0.095066 0.252821 0.174286 0.512941 0.253906 0.773437 0.074484 0.243522 0.154283 0.484169 0.214844 0.734375 0.068819 0.284546 0.113782 0.581834 0.164062 0.875 0.03908 0.227926 0.089627 0.450476 0.117188 0.683594 0.043934 0.370934 0.056596 0.75456 0.070312 1.138672 0.010991-0.156257 0.027136-0.31472 0.027344-0.466797 2.4e-4 -0.17948-0.021044-0.350626-0.027344-0.527344-0.0138-0.386086-0.026153-0.771695-0.070312-1.144531-0.027561-0.233118-0.078108-0.455668-0.117188-0.683594-0.05028-0.293166-0.095243-0.590454-0.164062-0.875-0.060561-0.250206-0.14036-0.490853-0.214844-0.734375-0.07962-0.260496-0.15884-0.520616-0.253906-0.773437-0.08309-0.220391-0.179128-0.433884-0.273438-0.648438-0.117316-0.266875-0.236692-0.531265-0.371094-0.789062-0.102234-0.196187-0.212409-0.387207-0.324218-0.578125-0.147952-0.252594-0.300678-0.502755-0.464844-0.746094-0.137496-0.203795-0.285134-0.400369-0.433594-0.597656-0.153018-0.203344-0.308386-0.405156-0.472656-0.601563-0.17295-0.206802-0.350198-0.410281-0.535156-0.609375-0.176592-0.190115-0.359752-0.37553-0.546876-0.558593-0.193533-0.189309-0.389404-0.376846-0.59375-0.558594-0.208736-0.185664-0.424987-0.36522-0.644531-0.542969-0.186102-0.15069-0.372866-0.300324-0.566406-0.445313-0.240818-0.18037-0.490364-0.35192-0.742187-0.523437-0.229079-0.156088-0.457577-0.312198-0.695313-0.460937-0.214108-0.133884-0.43545-0.262718-0.65625-0.390626-0.263152-0.152532-0.524703-0.3052-0.796875-0.449218-0.2147-0.113553-0.436232-0.219883-0.65625-0.328125-0.312878-0.154006-0.622319-0.309895-0.945312-0.453125-0.143941-0.06379-0.295575-0.11804-0.441407-0.179688-0.392738-0.166114-0.78577-0.333859-1.191406-0.484375h-0.003906-0.003907c-1.083069-0.401647-2.208937-0.749453-3.367187-1.0390622-0.65901-0.1647781-1.326876-0.3132033-2.003906-0.4414063-0.0184-0.00356-0.036368-0.0042925-0.054688-0.0078125-0.151932-0.0291664-0.301805-0.0400722-0.453125-0.0664062-1.299854-0.2258056-2.581708-0.363954-3.910156-0.3710938z" style="fill:#ffffff;opacity:.2"/>
 <path d="m23.152008 14.311529s5.42185-5.7900922 1.303818-7.4380528c-4.61291-1.846001-16.939564-0.679972-21.238981 2.6865757-1.641161 1.2505961-1.2594162 2.3354091-0.9183372 3.8171501 1.1803198 5.125757 5.0921392 18.199454 5.6924312 18.61214 0.7472288 0.5137 15.161069-17.677813 15.161069-17.677813z" style="opacity:.2"/>
 <path d="m23.152008 13.311509s5.42185-5.7900919 1.303818-7.4380525c-4.61291-1.846001-16.939564-0.679972-21.238981 2.6865756-1.641161 1.2505958-1.2594162 2.3354089-0.9183372 3.8171499 1.1803198 5.125757 5.0921392 18.199454 5.6924312 18.61214 0.7472288 0.5137 15.161069-17.677813 15.161069-17.677813z" style="fill:#86522b"/>
 <circle transform="scale(-1,1)" cx="-44" cy="32" r="4" style="opacity:.2"/>
 <circle transform="scale(-1,1)" cx="-44" cy="31" r="4" style="fill:#3f3f3f"/>
 <circle transform="scale(-1,1)" cx="-43.5" cy="30.5" r="1.5" style="fill:#ffffff"/>
 <path d="m40.847992 14.311529s-5.42185-5.7900922-1.303818-7.4380528c4.61291-1.846001 16.939564-0.679972 21.23898 2.6865757 1.641162 1.2505961 1.259418 2.3354091 0.918338 3.8171501-1.18032 5.125757-5.09214 18.199454-5.692432 18.61214-0.747228 0.5137-15.161068-17.677813-15.161068-17.677813z" style="opacity:.2"/>
 <path d="m40.847992 13.311509s-5.42185-5.7900919-1.303818-7.4380525c4.61291-1.846001 16.939564-0.679972 21.23898 2.6865756 1.641162 1.2505958 1.259418 2.3354089 0.918338 3.8171499-1.18032 5.125757-5.09214 18.199454-5.692432 18.61214-0.747228 0.5137-15.161068-17.677813-15.161068-17.677813z" style="fill:#86522b"/>
 <path d="m19.083984 5.0117188c-0.722472-0.0204978-1.472924-0.0163034-2.240234 0.0117187-5.115402 0.186814-10.937865 1.4310641-13.625 3.5351563-1.1526207 0.8783187-1.2902197 1.6933922-1.1601562 2.6074222 0.1135075-0.536881 0.4400411-1.058681 1.1601562-1.6074222 2.6871354-2.1040922 8.509598-3.3483423 13.625-3.5351563 3.069241-0.1120886 5.883439 0.1593121 7.613281 0.8515625 0.920926 0.3685374 1.350767 0.9463773 1.480469 1.6171875 0.181363-1.0849528-0.125102-2.0747945-1.480469-2.6171875-1.297381-0.5191878-3.205631-0.801788-5.373047-0.8632812z" style="fill:#ffffff;opacity:.1"/>
 <path d="m44.916016 5.0117188c-2.167416 0.0614933-4.075666 0.3440934-5.373047 0.8632812-1.355367 0.542393-1.661832 1.5322347-1.480469 2.6171875 0.129702-0.6708102 0.559543-1.2486501 1.480469-1.6171875 1.729842-0.6922504 4.544041-0.9636505 7.613281-0.8515625 5.115402 0.186814 10.937866 1.4310639 13.625 3.5351563 0.720116 0.5487412 1.046649 1.0705412 1.160156 1.6074222 0.130065-0.91403-0.007534-1.7291035-1.160156-2.6074222-2.687134-2.1040924-8.509598-3.3483423-13.625-3.5351563-0.76731-0.028022-1.517762-0.0322165-2.240234-0.0117187z" style="fill:#ffffff;opacity:.1"/>
</svg>

<svg xmlns="http://www.w3.org/2000/svg" width="64" height="64" version="1.1" viewBox="0 0 64 64">
 <path style="opacity:0.2" d="m 31.999998,10.000007 c -1.482632,0.008 -2.906548,0.157772 -4.363122,0.437481 -0.0188,0.0036 -0.03734,0.0042 -0.05614,0.0078 -0.675482,0.12791 -1.343556,0.277065 -2.0011,0.441388 -9.275666,2.31803 -16.5424819,8.244561 -15.475449,17.47581 0.07836,0.659892 0.194626,1.33164 0.35691,2.019442 0.01216,0.05152 0.02775,0.09726 0.0401,0.14844 1.289856,5.299716 4.299858,8.754808 5.522076,12.15963 0.01534,0.0438 0.03702,0.08902 0.05213,0.13282 3.182926,9.219534 2.84383,13.956892 8.946805,16.003216 2.45478,0.8173 4.437756,1.206616 6.977788,1.171826 2.540032,0.03478 4.523006,-0.354526 6.977788,-1.171826 6.102978,-2.046324 5.76388,-6.783682 8.946806,-16.003216 0.015,-0.04332 0.02916,-0.0934 0.04412,-0.13672 0.0028,8.92e-4 0.0052,0.003 0.008,0.004 1.222218,-3.404822 4.23222,-6.859914 5.522076,-12.15963 0.0124,-0.05118 0.02798,-0.09692 0.0401,-0.14844 0.16228,-0.687802 0.278558,-1.35955 0.356908,-2.019442 C 55.038486,18.476853 46.62346,12.377579 36.419264,10.4453 34.943046,10.158467 33.50175,10.008078 31.999998,10.000007 Z"/>
 <path style="fill:#d7cec7" d="m 31.999998,8.9999875 c -1.482632,0.00796 -2.906548,0.157772 -4.363122,0.4374812 -0.0188,0.0036 -0.03734,0.00416 -0.05614,0.00782 -0.675482,0.12791 -1.343556,0.2770642 -2.0011,0.4413872 C 16.30397,12.204706 9.8818279,18.131237 10.948861,27.362486 c 0.07836,0.659892 0.194626,1.33164 0.356909,2.019442 0.01216,0.05152 0.02775,0.09726 0.0401,0.14844 1.058521,4.349214 3.275505,7.174578 4.712183,10.03091 0.313979,0.624238 -0.253984,1.518066 -0.03478,2.12872 0.01534,0.0438 0.03702,0.08902 0.05213,0.13282 3.182926,9.219534 2.843829,13.956892 8.946805,16.003216 2.45478,0.8173 4.437756,1.206616 6.977788,1.171826 2.540032,0.03478 4.523006,-0.354526 6.977788,-1.171826 6.102978,-2.046324 5.76388,-6.783682 8.946806,-16.003216 0.015,-0.04332 0.02916,-0.0934 0.04412,-0.13672 0.0028,8.92e-4 0.0052,0.003 0.008,0.004 0.16712,-0.46558 -0.0078,-1.682922 0.21729,-2.154972 1.420538,-2.980072 3.065074,-5.429634 4.178554,-10.004658 0.0124,-0.05118 0.02798,-0.09692 0.0401,-0.14844 0.16228,-0.687802 0.278558,-1.35955 0.356908,-2.019442 C 53.912254,17.476833 46.62346,11.377559 36.419264,9.4452807 34.943046,9.1584473 33.50175,9.0080587 31.999998,8.9999875 Z"/>
 <path style="fill:#3f3f3f" d="M 30.531248,45 C 29.132802,45 28,46.014724 28,47.267578 28,48.53333 30.605504,51 32,51 33.394496,51 36,48.53333 36,47.267578 36,46.014724 34.867198,45 33.468752,45 L 32,45 30.531248,45 Z"/>
 <path style="fill:#de8c4a" d="m 28.089844,9.3710937 c -0.15132,0.026334 -0.3012,0.037232 -0.453126,0.066406 -0.0188,0.0036 -0.03588,0.00416 -0.05468,0.00782 -0.675482,0.12791 -1.346362,0.2770834 -2.003908,0.4414064 C 16.302465,12.204756 9.0384419,18.132039 10.105475,27.36329 c 0.07836,0.659892 0.193184,1.331728 0.355468,2.01953 0.01216,0.05152 0.02671,0.09726 0.03906,0.14844 1.189874,4.88891 3.827697,8.205248 5.191407,11.363282 C 23.350872,38.285596 30,31.106282 30,21.175782 30.014926,17.449489 29.64129,12.833099 28.089844,9.3710937 Z"/>
 <circle style="opacity:0.2" cx="20" cy="32" r="4"/>
 <circle style="fill:#3f3f3f" cx="20" cy="31" r="4"/>
 <circle style="fill:#ffffff" cx="19.5" cy="30.5" r="1.5"/>
 <path style="fill:#d86f6f" d="M 34.99998,56.142856 C 34.99998,57.720812 33.65684,59 31.999991,59 30.343142,59 29,57.720812 29,56.142856 c 0,-0.340016 0.06237,-0.666158 0.176799,-0.96862 0.416608,-1.101216 1.462078,-0.487676 2.761914,-0.487676 1.29846,0 2.465538,-0.615202 2.883165,0.484188 C 34.937153,55.47419 35,55.801534 35,56.142856 Z"/>
 <path style="fill:none;stroke:#79431b;stroke-width:2;stroke-linecap:round;stroke-linejoin:round" d="m 25,54 c 0,0 1.76916,0.98528 3.428572,1.42596 C 29.457694,55.699258 32,53.99739 32,53.99739 c 0,0 2.542306,1.701868 3.571428,1.42857 C 37.23084,54.98528 39,54 39,54"/>
 <path style="fill:#de8c4a" d="m 35.91014,9.3710937 c 0.15132,0.026334 0.3012,0.037232 0.453126,0.066406 0.0188,0.0036 0.03588,0.00416 0.05468,0.00782 0.675482,0.12791 1.346362,0.2770834 2.003908,0.4414064 9.275664,2.3180299 16.539688,8.2453129 15.472656,17.4765639 -0.07836,0.659892 -0.19318,1.331728 -0.35547,2.01953 -0.0122,0.05152 -0.02672,0.09726 -0.03906,0.14844 -1.189874,4.88891 -3.827696,8.205248 -5.191406,11.363282 -7.65946,-2.608946 -14.308588,-9.78826 -14.308588,-19.71876 -0.015,-3.726293 0.35871,-8.342683 1.910156,-11.8046883 z"/>
 <path style="opacity:0.2;fill:#ffffff" d="M 32 9 C 30.517368 9.00796 29.093293 9.15779 27.636719 9.4375 C 27.617919 9.4411 27.600831 9.4416525 27.582031 9.4453125 C 26.906549 9.5732225 26.235671 9.7223957 25.578125 9.8867188 C 24.418663 10.176464 23.291359 10.523855 22.207031 10.925781 C 21.666047 11.126331 21.130935 11.342055 20.613281 11.570312 C 17.502184 12.942884 14.840698 14.813237 12.960938 17.167969 L 12.960938 17.171875 C 11.395048 19.134295 10.36866 21.430698 10.082031 24.054688 L 10.082031 24.058594 C 10.01665 24.658691 10.012807 25.286439 10.033203 25.923828 C 10.043075 25.632675 10.051319 25.340486 10.082031 25.058594 L 10.082031 25.054688 C 10.36866 22.430697 11.395048 20.134295 12.960938 18.171875 L 12.960938 18.167969 C 14.840698 15.813237 17.502184 13.942884 20.613281 12.570312 C 21.130935 12.342056 21.666047 12.126331 22.207031 11.925781 C 23.291359 11.523855 24.418663 11.176465 25.578125 10.886719 C 26.235671 10.722396 26.906549 10.573222 27.582031 10.445312 C 27.600831 10.441713 27.617919 10.4411 27.636719 10.4375 C 29.093293 10.15779 30.517368 10.008 32 10 C 33.328448 10.00714 34.610302 10.14527 35.910156 10.371094 C 36.061476 10.397434 36.211349 10.40833 36.363281 10.4375 C 36.381601 10.441 36.399569 10.441712 36.417969 10.445312 C 37.094999 10.573515 37.762865 10.721941 38.421875 10.886719 C 39.580125 11.176328 40.705993 11.524134 41.789062 11.925781 L 41.792969 11.925781 L 41.796875 11.925781 C 42.202511 12.076297 42.595543 12.244042 42.988281 12.410156 C 43.134113 12.471804 43.285747 12.526054 43.429688 12.589844 C 43.752681 12.733074 44.062122 12.888963 44.375 13.042969 C 44.595018 13.151211 44.81655 13.257541 45.03125 13.371094 C 45.303422 13.515112 45.564973 13.66778 45.828125 13.820312 C 46.048925 13.94822 46.270267 14.077054 46.484375 14.210938 C 46.722111 14.359676 46.950609 14.515787 47.179688 14.671875 C 47.431511 14.843392 47.681057 15.014942 47.921875 15.195312 C 48.115415 15.3403 48.302179 15.489935 48.488281 15.640625 C 48.707825 15.818374 48.924076 15.99793 49.132812 16.183594 C 49.337158 16.365342 49.533029 16.552879 49.726562 16.742188 C 49.913686 16.925251 50.096846 17.110666 50.273438 17.300781 C 50.458396 17.499875 50.635644 17.703354 50.808594 17.910156 C 50.972864 18.106563 51.128232 18.308375 51.28125 18.511719 C 51.42971 18.709006 51.577348 18.90558 51.714844 19.109375 C 51.87901 19.352714 52.031736 19.602875 52.179688 19.855469 C 52.291497 20.046387 52.401672 20.237407 52.503906 20.433594 C 52.638308 20.691391 52.757684 20.955781 52.875 21.222656 C 52.96931 21.43721 53.065348 21.650723 53.148438 21.871094 C 53.243504 22.123915 53.322724 22.384035 53.402344 22.644531 C 53.476828 22.888053 53.556627 23.1287 53.617188 23.378906 C 53.686007 23.663452 53.73097 23.96074 53.78125 24.253906 C 53.82033 24.481832 53.870877 24.704382 53.898438 24.9375 C 53.942372 25.308434 53.955034 25.69206 53.96875 26.076172 C 53.979741 25.919915 53.995886 25.761452 53.996094 25.609375 C 53.996334 25.429895 53.97505 25.258749 53.96875 25.082031 C 53.95495 24.695945 53.942597 24.310336 53.898438 23.9375 C 53.870877 23.704382 53.82033 23.481832 53.78125 23.253906 C 53.73097 22.96074 53.686007 22.663452 53.617188 22.378906 C 53.556627 22.1287 53.476828 21.888053 53.402344 21.644531 C 53.322724 21.384035 53.243504 21.123915 53.148438 20.871094 C 53.065348 20.650703 52.96931 20.43721 52.875 20.222656 C 52.757684 19.955781 52.638308 19.691391 52.503906 19.433594 C 52.401672 19.237407 52.291497 19.046387 52.179688 18.855469 C 52.031736 18.602875 51.87901 18.352714 51.714844 18.109375 C 51.577348 17.90558 51.42971 17.709006 51.28125 17.511719 C 51.128232 17.308375 50.972864 17.106563 50.808594 16.910156 C 50.635644 16.703354 50.458396 16.499875 50.273438 16.300781 C 50.096846 16.110666 49.913686 15.925251 49.726562 15.742188 C 49.533029 15.552879 49.337158 15.365342 49.132812 15.183594 C 48.924076 14.99793 48.707825 14.818374 48.488281 14.640625 C 48.302179 14.489935 48.115415 14.340301 47.921875 14.195312 C 47.681057 14.014942 47.431511 13.843392 47.179688 13.671875 C 46.950609 13.515787 46.722111 13.359677 46.484375 13.210938 C 46.270267 13.077054 46.048925 12.94822 45.828125 12.820312 C 45.564973 12.66778 45.303422 12.515112 45.03125 12.371094 C 44.81655 12.257541 44.595018 12.151211 44.375 12.042969 C 44.062122 11.888963 43.752681 11.733074 43.429688 11.589844 C 43.285747 11.526054 43.134113 11.471804 42.988281 11.410156 C 42.595543 11.244042 42.202511 11.076297 41.796875 10.925781 L 41.792969 10.925781 L 41.789062 10.925781 C 40.705993 10.524134 39.580125 10.176328 38.421875 9.8867188 C 37.762865 9.7219407 37.094999 9.5735155 36.417969 9.4453125 C 36.399569 9.4417525 36.381601 9.44102 36.363281 9.4375 C 36.211349 9.4083336 36.061476 9.3974278 35.910156 9.3710938 C 34.610302 9.1452882 33.328448 9.0071398 32 9 z"/>
 <path style="opacity:0.2" d="m 23.152008,14.311529 c 0,0 5.42185,-5.7900922 1.303818,-7.4380528 C 19.842916,5.0274752 7.5162617,6.1935042 3.2168449,9.5600519 1.5756839,10.810648 1.9574287,11.895461 2.2985077,13.377202 3.4788275,18.502959 7.3906469,31.576656 7.9909389,31.989342 8.7381677,32.503042 23.152008,14.311529 23.152008,14.311529 Z"/>
 <path style="fill:#86522b" d="m 23.152008,13.311509 c 0,0 5.42185,-5.7900919 1.303818,-7.4380525 C 19.842916,4.0274555 7.5162617,5.1934845 3.2168449,8.5600321 1.5756839,9.8106279 1.9574287,10.895441 2.2985077,12.377182 3.4788275,17.502939 7.3906469,30.576636 7.9909389,30.989322 8.7381677,31.503022 23.152008,13.311509 23.152008,13.311509 Z"/>
 <circle style="opacity:0.2" cx="-44" cy="32" r="4" transform="scale(-1,1)"/>
 <circle style="fill:#3f3f3f" cx="-44" cy="31" r="4" transform="scale(-1,1)"/>
 <circle style="fill:#ffffff" cx="-43.5" cy="30.5" r="1.5" transform="scale(-1,1)"/>
 <path style="opacity:0.2" d="m 40.847992,14.311529 c 0,0 -5.42185,-5.7900922 -1.303818,-7.4380528 4.61291,-1.846001 16.939564,-0.679972 21.23898,2.6865757 1.641162,1.2505961 1.259418,2.3354091 0.918338,3.8171501 -1.18032,5.125757 -5.09214,18.199454 -5.692432,18.61214 -0.747228,0.5137 -15.161068,-17.677813 -15.161068,-17.677813 z"/>
 <path style="fill:#86522b" d="m 40.847992,13.311509 c 0,0 -5.42185,-5.7900919 -1.303818,-7.4380525 4.61291,-1.846001 16.939564,-0.679972 21.23898,2.6865756 1.641162,1.2505958 1.259418,2.3354089 0.918338,3.8171499 -1.18032,5.125757 -5.09214,18.199454 -5.692432,18.61214 -0.747228,0.5137 -15.161068,-17.677813 -15.161068,-17.677813 z"/>
 <path style="opacity:0.1;fill:#ffffff" d="M 19.083984 5.0117188 C 18.361512 4.991221 17.61106 4.9954154 16.84375 5.0234375 C 11.728348 5.2102515 5.9058854 6.4545016 3.21875 8.5585938 C 2.0661293 9.4369125 1.9285303 10.251986 2.0585938 11.166016 C 2.1721013 10.629135 2.4986349 10.107335 3.21875 9.5585938 C 5.9058854 7.4545016 11.728348 6.2102515 16.84375 6.0234375 C 19.912991 5.9113489 22.727189 6.1827496 24.457031 6.875 C 25.377957 7.2435374 25.807798 7.8213773 25.9375 8.4921875 C 26.118863 7.4072347 25.812398 6.417393 24.457031 5.875 C 23.15965 5.3558122 21.2514 5.073212 19.083984 5.0117188 z"/>
 <path style="opacity:0.1;fill:#ffffff" d="M 44.916016 5.0117188 C 42.7486 5.0732121 40.84035 5.3558122 39.542969 5.875 C 38.187602 6.417393 37.881137 7.4072347 38.0625 8.4921875 C 38.192202 7.8213773 38.622043 7.2435374 39.542969 6.875 C 41.272811 6.1827496 44.08701 5.9113495 47.15625 6.0234375 C 52.271652 6.2102515 58.094116 7.4545014 60.78125 9.5585938 C 61.501366 10.107335 61.827899 10.629135 61.941406 11.166016 C 62.071471 10.251986 61.933872 9.4369125 60.78125 8.5585938 C 58.094116 6.4545014 52.271652 5.2102515 47.15625 5.0234375 C 46.38894 4.9954155 45.638488 4.991221 44.916016 5.0117188 z"/>
</svg>
